icons/op-payment-history-24.svg

<svg width="24" height="24" viewBox="0 0 24 24" fill="none" xmlns="http://www.w3.org/2000/svg">
<path d="M11.6166 14.1334C10.8957 14.1334 10.2688 13.9115 9.79866 13.6578L9.48522 14.9579C9.89269 15.1799 10.6136 15.4019 11.3345 15.4336V16.4801H12.4002V15.3385C13.654 15.1165 14.3436 14.292 14.3436 13.3089C14.3436 12.3259 13.8107 11.7234 12.5256 11.2477C11.5853 10.8989 11.2091 10.6769 11.2091 10.2964C11.2091 9.97928 11.4286 9.69388 12.1495 9.69388C12.9331 9.69388 13.4346 9.94757 13.7167 10.0427L14.0301 8.80597C13.6853 8.64741 13.1838 8.48886 12.4629 8.45715V7.4741H11.3972V8.52057C10.2061 8.74255 9.5479 9.50361 9.5479 10.4867C9.5479 11.5648 10.3315 12.1039 11.4912 12.5162C12.3062 12.7699 12.651 13.0553 12.651 13.4675C12.651 13.9115 12.2435 14.1334 11.6166 14.1334ZM18.0108 6.77646C16.6003 5.15919 14.657 4.17615 12.5256 4.01759C9.64194 3.82732 6.915 5.1909 5.3478 7.53752L4 6.87159L4.47016 11.5014L7.82398 8.80597L6.78962 8.29859C8.07473 6.52277 10.2061 5.53972 12.4002 5.69828C14.1241 5.79341 15.66 6.58619 16.7884 7.85463C17.9168 9.15479 18.4496 10.7721 18.3243 12.4527C18.1048 15.941 15.0331 18.573 11.5226 18.3193C9.67328 18.1925 7.94936 17.2728 6.82097 15.7507L5.53586 16.7337C6.915 18.6364 9.07774 19.8097 11.4286 20H11.9927C16.1615 20 19.672 16.7972 19.9855 12.5796C20.1109 10.4549 19.4213 8.39372 18.0108 6.77646Z" fill="black"/>
</svg>

<svg xmlns="http://www.w3.org/2000/svg" width="24" height="24" viewBox="0 0 24 24"><path d="M11.617 14.133a3.846 3.846 0 0 1-1.818-.475l-.314 1.3c.408.222 1.129.444 1.85.476v1.046H12.4v-1.142c1.254-.221 1.944-1.046 1.944-2.029 0-.983-.533-1.586-1.818-2.061-.941-.349-1.317-.571-1.317-.952 0-.317.22-.602.94-.602.784 0 1.286.254 1.568.349l.313-1.237c-.345-.159-.846-.317-1.567-.349v-.983h-1.066v1.047c-1.191.222-1.849.983-1.849 1.966 0 1.078.784 1.617 1.943 2.029.815.254 1.16.539 1.16.951 0 .445-.408.666-1.034.666Zm6.394-7.357a8.027 8.027 0 0 0-5.485-2.758 7.989 7.989 0 0 0-7.178 3.52L4 6.872l.47 4.629 3.354-2.695-1.034-.507a6.365 6.365 0 0 1 5.61-2.601c1.724.095 3.26.888 4.388 2.157a6.22 6.22 0 0 1 1.536 4.598c-.219 3.488-3.291 6.12-6.801 5.866a6.387 6.387 0 0 1-4.702-2.568l-1.285.983C6.915 18.636 9.078 19.81 11.429 20h.564a8.01 8.01 0 0 0 7.992-7.42 8.049 8.049 0 0 0-1.974-5.804Z"/></svg>
